X: 1
T: John Stenson's
R: reel
M: 4/4
L: 1/8
K: Amaj
|:ABcA B2cB|ABcA BAFB|ABcA B2cf|eAcA BAFA|
ABcA B2cB|ABcA BAFA|d2dc dfed|1cdBc A2cB:|2cdBc ABcd||
|:e2cd edcd|e2cA BAFA|e2cd edcA|BdcA BAFA|
e2cd edcd|e2cA BAFA|1cdBc ABcd:|2cdBc A2cB||


Tune 1163	Setting 14430

